X: 11
T: JIMMY ALLEN
S: "Community Dances Manual 6", EFDSS, Jack Hamilton ed., 1981 p.9
R: march
Z: 2010 John Chambers <jc:trillian.mit.edu>
M: 4/4
L: 1/8
K: G
"A"[|]BA |\
"G"B2G2 G2A2 | "G"B4 G2AB | "Am"c2A2 A2B2 | "Am"c4 "D7"B2A2 |\
"G"G2g2 "C"g2e2 | "G"d4 B2Bc | "Am"d2d2 "D7"c2A2 | "G"G4 G2GA |
"G"B2G2 G2AA | "G"BcBA G2AB | "Am"c2A2 A2AB | "Am"cdcB "D7"A2BA |\
"G"G2g2 "C"g2e2 | "G"d4 B2Bc | "Am"d2d2 "D7"c2A2 | "G"G4 G2 ||
"B"|: BA |\
"G"G2g2 g3f | "G"e2d2 c2B2 | "A7"A2a2 a3g | "D7"f2d2 e2f2 |\
"G"g3a "C"g2e2 | "G"d4 B2Bc | "Am"d2d2 "D7"c2A2 | "G"G4 G2 :|

%%sep 2 1 500
%%sep 1 1 500

